icon/fa/arrows-to-dot.svg

<svg xmlns="http://www.w3.org/2000/svg" viewBox="0 0 512 512"><!--! Font Awesome Free 6.1.2 by @fontawesome - https://fontawesome.com License - https://fontawesome.com/license/free (Icons: CC BY 4.0, Fonts: SIL OFL 1.1, Code: MIT License) Copyright 2022 Fonticons, Inc.--><path d="m288 82.74 9.4-9.37c12.5-12.49 32.7-12.49 45.2 0 12.5 12.5 12.5 32.73 0 45.23l-64 64c-12.5 12.5-32.7 12.5-45.2 0l-64-64c-12.5-12.5-12.5-32.73 0-45.23 12.5-12.49 32.7-12.49 45.2 0l8.5 9.38V32c0-17.67 15.2-32 32-32C273.7 0 288 14.33 288 32v50.74zM438.6 342.6c-12.5 12.5-32.7 12.5-45.2 0l-64-64c-12.5-12.5-12.5-32.7 0-45.2l64-64c12.5-12.5 32.7-12.5 45.2 0s12.5 32.7 0 45.2l-9.3 8.5H480c17.7 0 32 15.2 32 32 0 18.6-14.3 32-32 32h-50.7l9.3 10.3c12.5 12.5 12.5 32.7 0 45.2zM288 256c0 17.7-14.3 32-32 32s-32-14.3-32-32 14.3-32 32-32 32 14.3 32 32zm-105.4-22.6c12.5 12.5 12.5 32.7 0 45.2l-64 64c-12.5 12.5-32.73 12.5-45.23 0-12.49-12.5-12.49-32.7 0-45.2l9.38-9.4H32c-17.67 0-32-14.3-32-32s14.33-32 32-32h50.74l-9.37-9.4c-12.49-12.5-12.49-32.7 0-45.2 12.5-12.5 32.73-12.5 45.23 0l64 64zm-13.2 205.2c-12.5-12.5-12.5-32.7 0-45.2l64-64c12.5-12.5 32.7-12.5 45.2 0l64 64c12.5 12.5 12.5 32.7 0 45.2s-32.7 12.5-45.2 0l-9.4-9.3V480c0 17.7-14.3 32-32 32s-32-14.3-32-32v-50.7l-9.4 9.3c-12.5 12.5-32.7 12.5-45.2 0z"/></svg>

<svg xmlns="http://www.w3.org/2000/svg" viewBox="0 0 512 512" height="1em" width="1em">
<!--! Font Awesome Free 6.1.2 by @fontawesome - https://fontawesome.com License - https://fontawesome.com/license/free (Icons: CC BY 4.0, Fonts: SIL OFL 1.1, Code: MIT License) Copyright 2022 Fonticons, Inc.-->
  <path d="M288 82.74L297.4 73.37C309.9 60.88 330.1 60.88 342.6 73.37C355.1 85.87 355.1 106.1 342.6 118.6L278.6 182.6C266.1 195.1 245.9 195.1 233.4 182.6L169.4 118.6C156.9 106.1 156.9 85.87 169.4 73.37C181.9 60.88 202.1 60.88 214.6 73.37L223.1 82.75V32C223.1 14.33 238.3 0 255.1 0C273.7 0 288 14.33 288 32L288 82.74zM438.6 342.6C426.1 355.1 405.9 355.1 393.4 342.6L329.4 278.6C316.9 266.1 316.9 245.9 329.4 233.4L393.4 169.4C405.9 156.9 426.1 156.9 438.6 169.4C451.1 181.9 451.1 202.1 438.6 214.6L429.3 223.1H480C497.7 223.1 512 238.3 512 255.1C512 273.7 497.7 287.1 480 287.1H429.3L438.6 297.4C451.1 309.9 451.1 330.1 438.6 342.6V342.6zM288 256C288 273.7 273.7 288 256 288C238.3 288 224 273.7 224 256C224 238.3 238.3 224 256 224C273.7 224 288 238.3 288 256zM182.6 233.4C195.1 245.9 195.1 266.1 182.6 278.6L118.6 342.6C106.1 355.1 85.87 355.1 73.37 342.6C60.88 330.1 60.88 309.9 73.37 297.4L82.75 288H32C14.33 288 0 273.7 0 256C0 238.3 14.33 224 32 224H82.74L73.37 214.6C60.88 202.1 60.88 181.9 73.37 169.4C85.87 156.9 106.1 156.9 118.6 169.4L182.6 233.4zM169.4 438.6C156.9 426.1 156.9 405.9 169.4 393.4L233.4 329.4C245.9 316.9 266.1 316.9 278.6 329.4L342.6 393.4C355.1 405.9 355.1 426.1 342.6 438.6C330.1 451.1 309.9 451.1 297.4 438.6L288 429.3V480C288 497.7 273.7 512 256 512C238.3 512 224 497.7 224 480V429.3L214.6 438.6C202.1 451.1 181.9 451.1 169.4 438.6H169.4z"/>
</svg>
